src/assets/tokens/SLING.svg

<svg width="178" height="46" viewBox="0 0 178 46" fill="none" xmlns="http://www.w3.org/2000/svg">
<g clip-path="url(#clip0_1282_335)">
<path d="M42.3507 0C16.2484 71.0321 21.4638 8.81296 21.4638 8.81296C17.267 28.4754 18.8918 86.1918 42.3507 0Z" fill="#051B7B"></path>
<path d="M42.3509 0C19.0035 36.3463 -27.2725 59.9257 21.4645 8.81296C21.4645 8.81296 -15.1119 57.8114 42.3509 0Z" fill="#F71628"></path>
<path d="M14.5841 24.9581C14.5057 25.375 14.3266 25.9315 14.0901 26.3311C13.2264 26.9711 10.5945 28.6902 9.75121 28.7278C9.29545 28.6207 8.90089 28.3454 8.62297 27.8565C7.63561 26.3815 9.02009 23.5686 11.5698 22.6998C13.4113 22.3613 14.7543 23.3748 14.5841 24.9581Z" fill="#051B7B"></path>
<path d="M57.6157 26.4318V18.568H55.6461V28.4123H63.8662V26.4433L57.6157 26.4318Z" fill="#051B7B"></path>
<path d="M65.4801 28.4123V18.568H67.4485V28.4123H65.4801Z" fill="#051B7B"></path>
<path d="M112.408 18.568V22.5053H106.202V18.568H104.235V28.4123H106.202V24.4737H112.408V28.4123H114.377V18.568H112.408Z" fill="#051B7B"></path>
<path d="M132.51 20.748V28.4123H134.647V20.748H138.47V18.6088H128.683V20.748H132.51Z" fill="#051B7B"></path>
<path d="M77.2922 18.5706V25.1685L70.6267 18.5706H69.2556V28.4295H71.3948V21.9623L77.885 28.4295H79.4307V18.5706H77.2922Z" fill="#051B7B"></path>
<path d="M47.067 18.6005C45.6201 18.6005 44.4402 19.941 44.4402 21.5811C44.4402 23.2269 45.5685 24.4622 47.0709 24.4737H51.4404C51.8624 24.561 52.2148 24.9594 52.2148 25.4407C52.2148 25.9238 51.8611 26.3184 51.4353 26.4465H44.9279V28.42H51.4417C53.6541 28.42 54.8703 25.4732 53.4597 23.5412C52.9606 22.8578 52.2212 22.4607 51.4366 22.5238H47.0645C46.6425 22.4601 46.2926 21.9935 46.2926 21.5148C46.2926 21.0336 46.6247 20.6084 47.067 20.5529H53.6656V18.6012L47.067 18.6005Z" fill="#051B7B"></path>
<path d="M95.5319 18.6005C94.0876 18.6005 92.909 19.941 92.909 21.5811C92.909 23.2269 94.0359 24.4622 95.537 24.4737H99.9059C100.33 24.561 100.68 24.9594 100.68 25.4407C100.68 25.9238 100.328 26.3184 99.9021 26.4465H93.3972V28.42H99.9085C102.12 28.42 103.337 25.4732 101.927 23.5412C101.426 22.8578 100.689 22.4607 99.9034 22.5238H95.53C95.1081 22.4601 94.7581 21.9935 94.7581 21.5148C94.7581 21.0336 95.0915 20.6084 95.5326 20.5529H102.131V18.6012L95.5319 18.6005Z" fill="#051B7B"></path>
<path d="M86.6469 22.4722V24.4348H89.5338V26.4472H85.5276C83.9774 26.4472 82.7051 25.0748 82.7051 23.5272C82.7051 21.9757 83.9787 20.7066 85.5276 20.7066H91.5468V18.5929H85.7998C83.0844 18.5929 80.8662 20.8111 80.8662 23.5272C80.8662 26.24 83.0844 28.4589 85.7998 28.4589H91.4843V22.4716L86.6469 22.4722Z" fill="#051B7B"></path>
<path d="M147.425 18.5457H141.61V26.3006V28.4123H143.56H147.425C150.141 28.4123 152.359 26.1935 152.359 23.4793C152.359 20.7652 150.14 18.5457 147.425 18.5457ZM147.23 27.4033H142.531V19.4547H147.23C149.379 19.4547 151.497 21.3523 151.497 23.4991C151.497 25.6459 149.377 27.4033 147.23 27.4033Z" fill="#051B7B"></path>
<path d="M163.728 28.4123H164.828L159.138 18.5432H158.059L152.241 28.4123H153.324L154.788 25.9888H162.328L163.728 28.4123ZM155.355 25.0531L158.642 19.6153L161.787 25.0531H155.355Z" fill="#051B7B"></path>
<path d="M123.285 18.4769H120.828C118.119 18.4769 115.904 20.6932 115.904 23.4054C115.904 26.1132 118.119 28.3307 120.828 28.3307H123.285C125.996 28.3307 128.212 26.1132 128.212 23.4054C128.212 20.6932 125.996 18.4769 123.285 18.4769ZM123.542 26.0596H120.572C119.111 26.0596 117.915 24.8625 117.915 23.4009C117.915 21.9444 119.113 20.748 120.572 20.748H123.542C125.001 20.748 126.199 21.9425 126.199 23.4009C126.199 24.8625 125.001 26.0596 123.542 26.0596Z" fill="#051B7B"></path>
<path d="M172.544 18.5457H169.381C166.671 18.5457 164.456 20.762 164.456 23.4723C164.456 26.1807 166.671 28.3977 169.381 28.3977H172.544C175.255 28.3977 177.471 26.1807 177.471 23.4723C177.472 20.7614 175.255 18.5457 172.544 18.5457ZM173.1 27.3867H168.825C166.971 27.3867 165.45 25.616 165.45 23.4596C165.45 21.3045 166.973 19.5369 168.825 19.5369H173.1C174.956 19.5369 176.478 21.3026 176.478 23.4596C176.478 25.616 174.957 27.3867 173.1 27.3867Z" fill="#051B7B"></path>
</g>
<defs>
<clipPath id="clip0_1282_335">
<rect width="177.472" height="46" fill="white"></rect>
</clipPath>
</defs>
</svg>

<svg fill="none" height="46" width="178" xmlns="http://www.w3.org/2000/svg" xmlns:xlink="http://www.w3.org/1999/xlink"><clipPath id="a"><path d="m0 0h177.472v46h-177.472z"/></clipPath><g clip-path="url(#a)"><path d="m42.35 0c-26.101 71.032-20.885 8.813-20.885 8.813-4.198 19.662-2.573 77.379 20.885-8.813z" fill="#051b7b"/><path d="m42.35 0c-23.346 36.346-69.622 59.926-20.885 8.813 0 0-36.576 48.998 20.887-8.813z" fill="#f71628"/><path d="m14.584 24.958c-.078.417-.257.974-.494 1.373-.864.64-3.495 2.36-4.339 2.397-.456-.107-.85-.383-1.128-.872-.987-1.475.397-4.287 2.947-5.156 1.841-.339 3.184.675 3.014 2.258zm43.032 1.474v-7.864h-1.97v9.844h8.22v-1.969zm7.864 1.98v-9.844h1.968v9.844zm46.928-9.844v3.937h-6.206v-3.937h-1.967v9.844h1.967v-3.938h6.206v3.938h1.969v-9.844zm20.102 2.18v7.664h2.137v-7.664h3.823v-2.14h-9.787v2.14zm-55.218-2.177v6.598l-6.665-6.598h-1.371v9.858h2.139v-6.467l6.49 6.468h1.546v-9.86h-2.139zm-30.225.03c-1.447 0-2.627 1.34-2.627 2.98 0 1.646 1.129 2.881 2.63 2.893h4.37a.996.996 0 0 1 .775.967c0 .483-.354.877-.78 1.006h-6.507v1.973h6.514c2.212 0 3.428-2.947 2.018-4.879-.5-.683-1.239-1.08-2.023-1.017h-4.372c-.422-.064-.772-.53-.772-1.01s.332-.906.774-.961h6.599v-1.953h-6.599zm48.465 0c-1.444 0-2.623 1.34-2.623 2.98 0 1.646 1.127 2.881 2.628 2.893h4.369a.994.994 0 0 1 .774.967c0 .483-.352.877-.778 1.006h-6.505v1.973h6.511c2.212 0 3.429-2.947 2.019-4.879-.501-.683-1.238-1.08-2.024-1.017h-4.373c-.422-.064-.772-.53-.772-1.01s.334-.906.775-.961h6.598v-1.953h-6.6zm-8.885 3.871v1.963h2.887v2.012h-4.006c-1.55 0-2.823-1.372-2.823-2.92a2.832 2.832 0 0 1 2.823-2.82h6.019v-2.114h-5.747a4.946 4.946 0 0 0 -4.934 4.934 4.946 4.946 0 0 0 4.934 4.933h5.684v-5.987h-4.837zm60.778-3.926h-5.815v9.866h5.815a4.946 4.946 0 0 0 4.934-4.933 4.947 4.947 0 0 0 -4.934-4.933zm-.195 8.857h-4.699v-7.948h4.699c2.149 0 4.267 1.897 4.267 4.044s-2.12 3.904-4.267 3.904zm16.498 1.01h1.1l-5.69-9.87h-1.079l-5.818 9.87h1.083l1.464-2.424h7.54l1.4 2.423zm-8.373-3.36 3.287-5.438 3.145 5.438zm-32.07-6.576h-2.457c-2.709 0-4.924 2.216-4.924 4.928 0 2.708 2.215 4.926 4.924 4.926h2.457c2.711 0 4.927-2.218 4.927-4.926a4.94 4.94 0 0 0 -4.927-4.928zm.257 7.583h-2.97a2.666 2.666 0 0 1 -2.657-2.66 2.666 2.666 0 0 1 2.657-2.652h2.97a2.665 2.665 0 0 1 2.657 2.653 2.668 2.668 0 0 1 -2.657 2.659zm49.002-7.514h-3.163a4.939 4.939 0 0 0 -4.925 4.926 4.94 4.94 0 0 0 4.925 4.926h3.163c2.711 0 4.927-2.217 4.927-4.926.001-2.71-2.216-4.926-4.927-4.926zm.556 8.84h-4.275c-1.854 0-3.375-1.77-3.375-3.926 0-2.155 1.523-3.923 3.375-3.923h4.275c1.856 0 3.378 1.766 3.378 3.923 0 2.156-1.521 3.927-3.378 3.927z" fill="#051b7b"/></g></svg>
